X: 15495
T: Glenlara, The
R: polka
M: 2/4
K: Dmajor
E|:F2 AE|FA D2|G/B/A/F/ dF|AE AD|
F2 AE|FA [Dd]2|G/B/A/F/ dF|E2 D2:|
|:dA/d/ fd|Bd A2|dA/d/ fA|e3 A/d/|
fA ed|B/c/d/A/ FA|B/c/d/A/ FA|1 [Dd]3 A:|2 D3 E||

